Numix/32/emotes/face-pirate.svg

<?xml version="1.0" encoding="UTF-8" standalone="no"?>
<svg
   xmlns:dc="http://purl.org/dc/elements/1.1/"
   xmlns:cc="http://creativecommons.org/ns#"
   xmlns:rdf="http://www.w3.org/1999/02/22-rdf-syntax-ns#"
   xmlns:svg="http://www.w3.org/2000/svg"
   xmlns="http://www.w3.org/2000/svg"
   xmlns:sodipodi="http://sodipodi.sourceforge.net/DTD/sodipodi-0.dtd"
   xmlns:inkscape="http://www.inkscape.org/namespaces/inkscape"
   width="32px"
   height="32px"
   viewBox="0 0 24 24"
   version="1.1"
   id="svg2"
   inkscape:version="0.91 r"
   sodipodi:docname="face-pirate.svg">
  <metadata
     id="metadata21">
    <rdf:RDF>
      <cc:Work
         rdf:about="">
        <dc:format>image/svg+xml</dc:format>
        <dc:type
           rdf:resource="http://purl.org/dc/dcmitype/StillImage" />
        <dc:title />
      </cc:Work>
    </rdf:RDF>
  </metadata>
  <defs
     id="defs19" />
  <sodipodi:namedview
     pagecolor="#ffffff"
     bordercolor="#666666"
     borderopacity="1"
     objecttolerance="10"
     gridtolerance="10"
     guidetolerance="10"
     inkscape:pageopacity="0"
     inkscape:pageshadow="2"
     inkscape:window-width="1920"
     inkscape:window-height="1056"
     id="namedview17"
     showgrid="true"
     inkscape:zoom="10.429825"
     inkscape:cx="15.977597"
     inkscape:cy="4.5389585"
     inkscape:window-x="0"
     inkscape:window-y="24"
     inkscape:window-maximized="1"
     inkscape:current-layer="svg2">
    <inkscape:grid
       type="xygrid"
       id="grid4203" />
  </sodipodi:namedview>
  <path
     inkscape:connector-curvature="0"
     id="path5-5"
     d="m 22.499999,11.999999 c 0,4.971775 -4.703124,9 -10.5,9 -5.7968749,0 -10.499999,-4.028225 -10.499999,-9 0,-4.9717731 4.6985671,-8.9999989 10.499999,-8.9999989 5.801432,0 10.5,4.0282258 10.5,8.9999989 z m 0,0"
     style="fill:#ffd95c;fill-opacity:1;fill-rule:nonzero;stroke:none" />
  <path
     style="fill:#636363;fill-opacity:1;fill-rule:nonzero;stroke:none"
     d="m 15.749999,14.25 c -0.275355,1.121813 -1.804295,1.882324 -3.747071,1.882324 -0.001,0 -0.0019,0 -0.0029,0 l 0,1.305176 c 9.9e-4,0 0.0019,0 0.0029,0 2.228328,0 4.129933,-1.305915 4.497071,-3.1875 l -0.75,0 z"
     id="path13-5"
     inkscape:connector-curvature="0" />
  <path
     style="fill:#636363;fill-opacity:1;fill-rule:nonzero;stroke:none"
     d="M 9.5253906 11.439453 C 9.0160957 11.82732 8.6816406 12.434026 8.6816406 13.125 C 8.6816406 14.300391 9.6312499 15.25 10.806641 15.25 C 11.891179 15.25 12.772834 14.438968 12.904297 13.390625 L 9.5253906 11.439453 z "
     transform="scale(0.74999998,0.74999998)"
     id="path4169" />
  <path
     style="fill:#636363;fill-opacity:1;fill-rule:nonzero;stroke:none"
     d="M 22.394531 11.484375 L 18.964844 13.464844 C 19.127638 14.477464 19.997427 15.25 21.056641 15.25 C 22.232031 15.25 23.181641 14.300391 23.181641 13.125 C 23.181641 12.459597 22.871875 11.873736 22.394531 11.484375 z "
     transform="scale(0.74999998,0.74999998)"
     id="path4171" />
  <path
     inkscape:connector-curvature="0"
     style="fill:#454545;fill-opacity:1;fill-rule:nonzero;stroke:none"
     d="m 14.666667,8.2500001 2.916666,0 c 0.642578,0 1.166667,0.5053713 1.166667,1.1249998 l 0,2.2500001 c 0,0.619629 -0.524089,1.125 -1.166667,1.125 l -2.916666,0 C 14.024089,12.75 13.5,12.244629 13.5,11.625 l 0,-2.2500001 c 0,-0.6196285 0.524089,-1.1249998 1.166667,-1.1249998 z m 0,0"
     id="path4150" />
  <path
     style="fill:#454545;fill-opacity:1;fill-rule:nonzero;stroke:none"
     d="M 23.59375 13.5 C 23.269406 13.5 23 13.726563 23 14 C 23 14.273439 23.269406 14.5 23.59375 14.5 L 29.878906 14.5 C 29.829727 14.162595 29.770593 13.828087 29.689453 13.5 L 23.59375 13.5 z "
     transform="scale(0.74999998,0.74999998)"
     id="path4152" />
  <path
     style="fill:#454545;fill-opacity:1;fill-rule:nonzero;stroke:none"
     d="M 14.962891 4.0449219 C 14.594162 4.0681325 14.231312 4.1070989 13.871094 4.1542969 L 19.945312 14.673828 L 20.810547 14.173828 L 14.962891 4.0449219 z "
     transform="scale(0.74999998,0.74999998)"
     id="path4179" />
</svg>

<svg xmlns="http://www.w3.org/2000/svg" width="32" height="32" viewBox="0 0 24 24">
 <path d="m 22.5 12 c 0 4.972 -4.703 9 -10.5 9 -5.797 0 -10.5 -4.03 -10.5 -9 0 -4.972 4.699 -9 10.5 -9 5.801 0 10.5 4.03 10.5 9 z m 0 0" style="fill:#ffd95c;fill-opacity:1;stroke:none;fill-rule:nonzero"/>
 <path d="m 15.75 14.25 c -0.275 1.122 -1.804 1.882 -3.747 1.882 -0.001 0 -0.002 0 -0.003 0 l 0 1.305 c 0.001 0 0.002 0 0.003 0 2.228 0 4.13 -1.306 4.497 -3.188 l -0.75 0 z" style="fill:#636363;fill-opacity:1;stroke:none;fill-rule:nonzero"/>
 <path d="m 9.525 11.439 c -0.509 0.388 -0.844 0.995 -0.844 1.686 c 0 1.175 0.95 2.125 2.125 2.125 c 1.085 0 1.966 -0.811 2.098 -1.859 l -3.379 -1.951 z" transform="scale(0.74999998,0.74999998)" style="fill:#636363;fill-opacity:1;stroke:none;fill-rule:nonzero"/>
 <path d="m 22.395 11.484 l -3.43 1.98 c 0.163 1.013 1.033 1.785 2.092 1.785 c 1.175 0 2.125 -0.95 2.125 -2.125 c 0 -0.665 -0.31 -1.251 -0.787 -1.641 z" transform="scale(0.74999998,0.74999998)" style="fill:#636363;fill-opacity:1;stroke:none;fill-rule:nonzero"/>
 <path d="m 14.667 8.25 2.917 0 c 0.643 0 1.167 0.505 1.167 1.125 l 0 2.25 c 0 0.62 -0.524 1.125 -1.167 1.125 l -2.917 0 c -0.643 0 -1.167 -0.505 -1.167 -1.125 l 0 -2.25 c 0 -0.62 0.524 -1.125 1.167 -1.125 z m 0 0" style="fill:#454545;fill-opacity:1;stroke:none;fill-rule:nonzero"/>
 <path d="m 23.594 13.5 c -0.324 0 -0.594 0.227 -0.594 0.5 c 0 0.273 0.269 0.5 0.594 0.5 l 6.285 0 c -0.049 -0.337 -0.108 -0.672 -0.189 -1 l -6.096 0 z" transform="scale(0.74999998,0.74999998)" style="fill:#454545;fill-opacity:1;stroke:none;fill-rule:nonzero"/>
 <path d="m 14.963 4.045 c -0.369 0.023 -0.732 0.062 -1.092 0.109 l 6.074 10.52 l 0.865 -0.5 l -5.848 -10.129 z" transform="scale(0.74999998,0.74999998)" style="fill:#454545;fill-opacity:1;stroke:none;fill-rule:nonzero"/>
</svg>
